Papirus/16x16/devices/multimedia-player.svg

<?xml version="1.0" encoding="UTF-8" standalone="no"?>
<svg xmlns="http://www.w3.org/2000/svg" viewBox="0 0 16 16">
  <defs>
    <style type="text/css" id="current-color-scheme">
      .ColorScheme-Text {
        color:#000000;
      }
      </style>
  </defs>
  <path 
     style="fill:currentColor;opacity:1"
     class="ColorScheme-Text"
     d="M 3 1.0351562 C 2 1.0351562 2 2.0351562 2 2.0351562 L 2 14.035156 C 2 14.035156 2 15.035156 3 15.035156 L 13 15.035156 C 13 15.035156 14 15.035156 14 14.035156 L 14 2.0351562 C 14 2.0353562 14 1.0351562 13 1.0351562 L 3 1.0351562 z M 4 4 L 12 8 L 4 12 L 4 4 z "
      />
</svg>

<?xml version="1.0" encoding="UTF-8" standalone="no"?>
<!--Created with Inkscape (http://www.inkscape.org/)-->
<svg id="svg7384" xmlns:rdf="http://www.w3.org/1999/02/22-rdf-syntax-ns#" style="enable-background:new" xmlns="http://www.w3.org/2000/svg" height="16" width="16" version="1.1" xmlns:cc="http://creativecommons.org/ns#" xmlns:dc="http://purl.org/dc/elements/1.1/">
 <metadata id="metadata90">
  <rdf:RDF>
   <cc:Work rdf:about="">
    <dc:format>image/svg+xml</dc:format>
    <dc:type rdf:resource="http://purl.org/dc/dcmitype/StillImage"/>
   </cc:Work>
  </rdf:RDF>
 </metadata>
 <defs id="defs7386">
  <filter id="filter7554" style="fill-interpolation-filters:sRGB">
   <feBlend id="feBlend7556" in2="BackgroundImage" mode="darken"/>
  </filter>
 </defs>
 <g id="layer10" filter="url(#filter7554)" transform="translate(-265 139.03)">
  <path id="path4154" opacity="1" fill="#5c616c" d="m3 1.0352c-1 0-1 1-1 1v12s0 1 1 1h10s1 0 1-1v-12c0 0.0002 0-0.9998-1-0.9998h-10zm1 2.9648l8 4-8 4v-8z" transform="translate(265 -139.03)"/>
 </g>
</svg>
